world_stage/static/flags/rect/rwa.svg

<svg height="960" viewBox="0 0 1440 960" width="1440" xmlns="http://www.w3.org/2000/svg" xmlns:xlink="http://www.w3.org/1999/xlink"><clipPath id="a"><path d="m0 720h1080v-720h-1080z" transform="translate(-886.50002 -566.20021)"/></clipPath><g transform="matrix(1.3333333 0 0 -1.3333333 0 960)"><path d="m0 360h1080v360h-1080z" fill="#00a1de"/><path d="m0 180h1080v180h-1080z" fill="#fad201"/><path d="m0 0h1080v180h-1080z" fill="#20603d"/></g><g fill="#e5be01"><path d="m0 0-80.407-4.699 76.451-25.35-78.884 16.273 67.286-44.274-71.985 36.134 53.534-60.179-60.18 53.534 36.135-71.984-44.273 67.285 16.272-78.884-25.349 76.452-4.7-80.408-1 117.1z" transform="matrix(1.3333333 0 0 -1.3333333 1336.7995 250.80013)"/><path d="m0 0-80.407 4.699 76.451 25.35-78.884-16.272 67.286 44.273-71.985-36.134 53.534 60.179-60.18-53.534 36.135 71.984-44.273-67.285 16.272 78.884-25.349-76.452-4.7 80.408-1-117.1z" transform="matrix(1.3333333 0 0 -1.3333333 1336.7995 250.80013)"/><path d="m0 0 80.407-4.699-76.451-25.35 78.884 16.273-67.286-44.274 71.985 36.134-53.534-60.179 60.18 53.534-36.135-71.984 44.273 67.285-16.272-78.884 25.349 76.452 4.7-80.408 1 117.1z" transform="matrix(1.3333333 0 0 -1.3333333 1027.2005 250.80013)"/><path d="m0 0 80.407 4.699-76.451 25.35 78.884-16.272-67.286 44.273 71.985-36.134-53.534 60.179 60.18-53.534-36.135 71.984 44.273-67.285-16.272 78.884 25.349-76.452 4.7 80.408 1-117.1z" transform="matrix(1.3333333 0 0 -1.3333333 1027.2005 250.80013)"/><path clip-path="url(#a)" d="m0 0c18.943 0 34.3-15.357 34.3-34.3 0-18.944-15.357-34.3-34.3-34.3s-34.3 15.356-34.3 34.3c0 18.943 15.357 34.3 34.3 34.3" stroke="#00a1de" stroke-width="3.4" transform="matrix(1.3333333 0 0 -1.3333333 1182 205.0664)"/></g></svg>

<?xml version="1.0" encoding="UTF-8" standalone="no"?>
<!-- Created with Inkscape (http://www.inkscape.org/) -->

<svg
   version="1.1"
   id="svg1"
   width="1440"
   height="960"
   viewBox="0 0 1440 960"
   sodipodi:docname="rw.ai"
   xmlns:inkscape="http://www.inkscape.org/namespaces/inkscape"
   xmlns:sodipodi="http://sodipodi.sourceforge.net/DTD/sodipodi-0.dtd"
   xmlns="http://www.w3.org/2000/svg"
   xmlns:svg="http://www.w3.org/2000/svg">
  <defs
     id="defs1">
    <clipPath
       clipPathUnits="userSpaceOnUse"
       id="clipPath9">
      <path
         d="M 0,720 H 1080 V 0 H 0 Z"
         transform="translate(-886.50002,-566.20021)"
         id="path9" />
    </clipPath>
  </defs>
  <sodipodi:namedview
     id="namedview1"
     pagecolor="#ffffff"
     bordercolor="#000000"
     borderopacity="0.25"
     inkscape:showpageshadow="2"
     inkscape:pageopacity="0.0"
     inkscape:pagecheckerboard="0"
     inkscape:deskcolor="#d1d1d1">
    <inkscape:page
       x="0"
       y="0"
       inkscape:label="1"
       id="page1"
       width="1440"
       height="960"
       margin="0"
       bleed="0" />
  </sodipodi:namedview>
  <g
     id="layer-MC0"
     inkscape:groupmode="layer"
     inkscape:label="Layer 1">
    <path
       id="path1"
       d="M 0,360 H 1080 V 720 H 0 Z"
       style="fill:#00a1de;fill-opacity:1;fill-rule:nonzero;stroke:none"
       transform="matrix(1.3333333,0,0,-1.3333333,0,960)" />
    <path
       id="path2"
       d="M 0,180 H 1080 V 360 H 0 Z"
       style="fill:#fad201;fill-opacity:1;fill-rule:nonzero;stroke:none"
       transform="matrix(1.3333333,0,0,-1.3333333,0,960)" />
    <path
       id="path3"
       d="M 0,0 H 1080 V 180 H 0 Z"
       style="fill:#20603d;fill-opacity:1;fill-rule:nonzero;stroke:none"
       transform="matrix(1.3333333,0,0,-1.3333333,0,960)" />
    <path
       id="path4"
       d="m 0,0 -80.407,-4.699 76.451,-25.35 -78.884,16.273 67.286,-44.274 -71.985,36.134 53.534,-60.179 -60.18,53.534 36.135,-71.984 -44.273,67.285 16.272,-78.884 -25.349,76.452 -4.7,-80.408 -1,117.1 z"
       style="fill:#e5be01;fill-opacity:1;fill-rule:nonzero;stroke:none"
       transform="matrix(1.3333333,0,0,-1.3333333,1336.7995,250.80013)" />
    <path
       id="path5"
       d="M 0,0 -80.407,4.699 -3.956,30.049 -82.84,13.777 -15.554,58.05 -87.539,21.916 -34.005,82.095 -94.185,28.561 -58.05,100.545 -102.323,33.26 -86.051,112.144 -111.4,35.692 -116.1,116.1 -117.1,-1 Z"
       style="fill:#e5be01;fill-opacity:1;fill-rule:nonzero;stroke:none"
       transform="matrix(1.3333333,0,0,-1.3333333,1336.7995,250.80013)" />
    <path
       id="path6"
       d="M 0,0 80.407,-4.699 3.956,-30.049 82.84,-13.776 15.554,-58.05 l 71.985,36.134 -53.534,-60.179 60.18,53.534 -36.135,-71.984 44.273,67.285 -16.272,-78.884 25.349,76.452 4.7,-80.408 1,117.1 z"
       style="fill:#e5be01;fill-opacity:1;fill-rule:nonzero;stroke:none"
       transform="matrix(1.3333333,0,0,-1.3333333,1027.2005,250.80013)" />
    <path
       id="path7"
       d="M 0,0 80.407,4.699 3.956,30.049 82.84,13.777 15.554,58.05 87.539,21.916 34.005,82.095 94.185,28.561 58.05,100.545 102.323,33.26 86.051,112.144 111.4,35.692 116.1,116.1 117.1,-1 Z"
       style="fill:#e5be01;fill-opacity:1;fill-rule:nonzero;stroke:none"
       transform="matrix(1.3333333,0,0,-1.3333333,1027.2005,250.80013)" />
    <path
       id="path8"
       d="m 0,0 c 18.943,0 34.3,-15.357 34.3,-34.3 0,-18.944 -15.357,-34.3 -34.3,-34.3 -18.943,0 -34.3,15.356 -34.3,34.3 C -34.3,-15.357 -18.943,0 0,0"
       style="fill:#e5be01;fill-opacity:1;fill-rule:nonzero;stroke:#00a1de;stroke-width:3.4;stroke-linecap:butt;stroke-linejoin:miter;stroke-miterlimit:4;stroke-dasharray:none;stroke-opacity:1"
       transform="matrix(1.3333333,0,0,-1.3333333,1182,205.0664)"
       clip-path="url(#clipPath9)" />
  </g>
</svg>
